X: 1
T: Little Rabbit
R: reel
S: NOTSBA Jam collection
F: http://www.nashvilleoldtime.org/Tunes%20-%20Listen%20and%20Learn/tunepackages/Little%20Rabbit.pdf
Z: 2010 John Chambers <jc:trillian.mit.edu>
M: 2/4
L: 1/16
K: A
ef \
| "A"a2af e2ef | "A"a2aa "E7"b2ef \
| "A"a2aa "D"faa2 | "A"ecc2 c2 :: ef \
| "A"ecc2 c2ef | "A"ecB2 c2ef |
| "A"ecc2 c2ef | "E7"ecB2 "A"A2 :: EF \
| "A"A2AA c2ee | "A"A2AA c2EF \
| A2AA "D"c2ff | "E7"ecB2 A2 :|
|: cd | "A"e2e2 "D"f3f | "A"e2 c4 cd \
| "A"e2f2 "D"a3f | "A"e2 c4 cd \
| "A"e2e2 "D"f3f | "A"e2 c4 cB |
| "A"A2F2 "E7"E3E | "A"F2 A4 :: cB \
| "A"A2F2 E3E | "A"e2 c4 cB \
| "A"A2F2 "E7"E3E | "A"F2 A4 :|
